build/img/suitcase.svg

<?xml version="1.0" encoding="UTF-8"?>
<svg width="481px" height="376px" viewBox="0 0 481 376" version="1.1" xmlns="http://www.w3.org/2000/svg" xmlns:xlink="http://www.w3.org/1999/xlink">
    <title>suitcase</title>
    <g id="Page-1" stroke="none" stroke-width="1" fill="none" fill-rule="evenodd">
        <g id="suitcase">
            <polygon id="suitcase-bg" fill="#FFFFFF" points="62.717617 35.2867054 20.9479971 85.9947344 13.8762543 106.875595 12.6440966 357.156314 19.3920031 365.165339 412.887361 367.526975 466.744237 316.829477 476.035444 185.915353 470.485468 51.7707641 461.002066 49.7882539 459.124869 34.807533 324.372099 36.0159954 286.580664 4.48276262 217.432394 6.5679526 190.298597 36.3345661"></polygon>
            <path d="M285.59375,45.12 L226.095052,45.12 L226.095052,75.2 L218.266276,75.2 L180.375,75.2 L180.375,67.3666667 L180.375,45.12 L62.0039062,45.12 L62.0039062,59.5333333 L46.3463542,59.5333333 L46.3463542,43.8666667 L56.9934896,43.8666667 L56.9934896,29.4533333 L194.779948,29.4533333 L194.779948,30.7066667 L196.032552,30.7066667 L196.032552,59.5333333 L210.4375,59.5333333 L210.4375,37.9133333 L210.4375,29.4533333 L301.251302,29.4533333 L301.251302,37.9133333 L301.251302,59.5333333 L315.65625,59.5333333 L315.65625,37.9133333 L315.65625,30.7066667 L301.251302,30.7066667 L301.251302,15.04 L316.908854,15.04 L316.908854,29.4533333 L467.847656,29.4533333 L467.847656,37.9133333 L467.847656,46.3733333 L481,46.3733333 L481,315.84 L465.342448,315.84 L465.342448,59.5333333 L452.190104,59.5333333 L452.190104,45.12 L331.313802,45.12 L331.313802,75.2 L323.485026,75.2 L293.735677,75.2 L285.59375,75.2 L285.59375,45.12 Z M420.875,353.755612 L420.875,104.648776 L420.992943,104.648776 L420.992943,90.8666667 L436.532552,90.8666667 L436.532552,75.2 L420.875,75.2 L420.875,88.991224 L30.6888021,88.991224 L30.6888021,75.2 L15.03125,75.2 L15.03125,103.4 L0,103.4 L0,360.96 L15.5396094,360.96 L15.5396094,375.995443 L405.217448,375.995443 L420.875,376 L420.992943,375.995443 L420.992943,362.84 L436.532552,362.84 L436.532552,347.173333 L420.875,347.173333 L420.875,353.755612 Z M15.6575521,360.337891 L15.6575521,104.648776 L405.217448,104.648776 L405.217448,360.337891 L15.6575521,360.337891 Z M436.532552,59.5333333 L452.190104,59.5333333 L452.190104,75.2 L436.532552,75.2 L436.532552,59.5333333 Z M194.779948,15.04 L210.4375,15.04 L210.4375,30.7066667 L194.779948,30.7066667 L194.779948,15.04 Z M210.4375,0 L301.251302,0 L301.251302,15.6666667 L210.4375,15.6666667 L210.4375,0 Z M30.6888021,59.5333333 L46.3463542,59.5333333 L46.3463542,75.2 L30.6888021,75.2 L30.6888021,59.5333333 Z M452.190104,315.84 L467.847656,315.84 L467.847656,331.506667 L452.190104,331.506667 L452.190104,315.84 Z M436.532552,331.506667 L452.190104,331.506667 L452.190104,347.173333 L436.532552,347.173333 L436.532552,331.506667 Z" fill="#000000"></path>
        </g>
    </g>
</svg>

<svg width="481" height="376" xmlns="http://www.w3.org/2000/svg"><g fill="none" fill-rule="evenodd"><path fill="#FFF" d="M62.718 35.287l-41.77 50.708-7.072 20.88-1.232 250.281 6.748 8.01 393.495 2.361 53.857-50.698 9.291-130.914-5.55-134.144-9.483-1.983-1.877-14.98-134.753 1.208-37.791-31.533-69.149 2.085L190.3 36.335z"/><path d="M285.594 45.12h-59.499V75.2h-45.72V45.12H62.004v14.413H46.346V43.867h10.647V29.453H194.78v1.254h1.253v28.826h14.405v-30.08h90.813v30.08h14.405V30.707h-14.405V15.04h15.658v14.413h150.939v16.92H481V315.84h-15.658V59.533H452.19V45.12H331.314V75.2h-45.72V45.12zm135.281 308.636V104.649h.118V90.867h15.54V75.2h-15.658v13.791H30.689V75.2H15.03v28.2H0v257.56h15.54v15.035h389.677l15.658.005.118-.005V362.84h15.54v-15.667h-15.658v6.583zm-405.217 6.582v-255.69h389.56v255.69H15.657zM436.533 59.533h15.657V75.2h-15.657V59.533zM194.78 15.04h15.657v15.667H194.78V15.04zM210.437 0h90.814v15.667h-90.813V0zM30.69 59.533h15.657V75.2H30.69V59.533zm421.5 256.307h15.658v15.667H452.19V315.84zm-15.657 15.667h15.657v15.666h-15.657v-15.666z" fill="#000"/></g></svg>
